X:10586
M:4/4
T: McAlpine's Fusiliers
R:march
C: Dominic Behan
L:1/8
Z:added by Alf warnock@magma.ca
K:D
A|"D"d3c B2AF|"G"E2D2 B,2DE|"D"FF3 "A"E3C|"D"D7A|
A3F A2Bc|"G"d2"A"c2 "G"B3A|BcBA "D"F2A2|"G"BB6A|
"D"A2F2 A2Bc|"G"d2"A"c2 "G"B3A|BcBA "D"FEFA|"G"B6Bc|
"D"d3c B2AF|"G"E2D2 B,2DE|"D"FF3 "A"E3D|"D"D8:|
